X:312
T:My Little Dancing Girl
C:Andy Leftwich (Phil Leadbetter)
N:Transcribed by Steve Keating
R:bluegrass
L:1/8
Q:1/4=235
M:4/4
K:A
"A"zD EF AB cd | e2 de e2 ef | "D"=gf ed =c^c A=G | "A"AE =GA dB AF | "G"=GB, DF GA Bd | 
cA =GA AG =F^F | "D"D=G, A,=C DE FA | "G"=GF GB df =gd | 
M:2/4
"E"f/g/e d=c | 
M:4/4
"A"AD =GA Ae AA | eD E=G (3=cAG (3Acd | e2 de =ge ae | "D"=c'/^c'/a =ga ge g^d | 
"A"dA =c^c AE FA | "G"=GB, DF GA Bd | "A"=c^c d^d eA =c^c | "D"de fd e=f ^fa | 
"G"=ge dB A=G E^D | 
M:2/4
"E"D^D/=D/ =C^C | 
M:4/4
"A"A,2 A,B, CD E=G | AD =GA AG EF | "G"=GB, DF GA (3Bde | =gd ga eB de | "D"=cA =GE DA, =C^C | 
"A"A,C A,2 =C^C EF | "G"=GB, DG Bd =gG | Bd =ga bd' {d'}ba | =ge dB dB A=G | "D"FA dA d=c AF | 
"G"=GB, DF GA Be | =gA (3Bde aA (3Bde | be a=g eg aA | "A"=ga =c'^c' ae ge | "G"dD =cD ^AB =GE | 
DA, B,D EF =GA | Bc de fd =g^g | "E"eB ad =g^g ed | bB aB =g/^g/e dB | 
M:2/4
^A=A =G^G | 
M:4/4
"A"ED E=G AD GA | 
K:C
A8 | 


